X:51
T:Asgill's Rant
M:6/8
L:1/8
B:Thompson's Compleat Collection of 200 Favourite Country Dances, vol. 3 (London, 1773)
Z:Transcribed and edited by Flynn Titford-Mock, 2007
Z:abc's:AK/Fiddler's Companion
K:D
(def) (edc) | (dAF) D2A | (def) (efg) | fdd e3 :|
|: (ecA) (ecA) | (Bcd) "tr"d3 | (bge) (afd) | cec A2G | (FAd) (BAG) | FGE D3 :|

